static/img/ramp.svg

<svg height="193" viewBox="0 0 1200 193" width="1200" xmlns="http://www.w3.org/2000/svg" xmlns:xlink="http://www.w3.org/1999/xlink"><defs><path id="a" d="m0 161.020995h123.68479s191.518298 6 501.584924-24.918517 574.730286-136.102478 574.730286-136.102478l.88205 191.819735h-1200.88205z"/><linearGradient id="b" x1="0%" x2="100%" y1="123.2874%" y2="64.535518%"><stop offset="0" stop-color="#00e0c0"/><stop offset="1" stop-color="#0998f0"/></linearGradient><mask id="c" fill="#fff"><use fill="#fff" fill-rule="evenodd" xlink:href="#a"/></mask></defs><g fill="none" fill-rule="evenodd"><g><use fill="#505050" xlink:href="#a"/><path d="m0 121.177126h133l-10 79.072444h-123z" fill="#f4f6f6" mask="url(#c)"/><path d="m123-246.912813 955-4.454196v443.367009h-955z" fill="url(#b)" mask="url(#c)"/><path d="m1077-407.385677 124-.614323v608.24957h-124z" fill="#f4f6f6" mask="url(#c)"/></g><g transform="translate(0 170)"><g fill="#000"><circle cx="84.5" cy="6.5" r="1.5"/><circle cx="1165.5" cy="6.5" r="1.5"/><circle cx="1112.5" cy="6.5" r="1.5"/></g><circle cx="509.5" cy="6.5" fill="#fff" r="1.5"/><circle cx="685.5" cy="6.5" fill="#fff" r="1.5"/><path d="m47.168 11h1.666v-9.8h-1.666zm3.85-9.8h3.178c3.248 0 5.082 2.422 5.082 4.9s-1.834 4.9-5.082 4.9h-3.178zm3.178 1.442h-1.568v6.916h1.568c2.184 0 3.43-1.708 3.43-3.458s-1.246-3.458-3.43-3.458zm12.432 0v-1.442h-5.656v9.8h5.656v-1.442h-4.046v-2.702h4.046v-1.442h-4.046v-2.772zm9.044 8.358h-1.694l-.42-1.246h-3.682l-.42 1.246h-1.694l3.388-9.8h1.134zm-2.604-2.688-1.344-4.438-1.358 4.438z" fill="#000"/><path d="m1123.288 7.794c0 2.198 1.596 3.444 3.374 3.444 1.82 0 3.36-1.064 3.36-3.08 0-1.876-1.834-2.52-3.36-3.066-.728-.266-1.428-.644-1.428-1.442 0-.826.672-1.246 1.47-1.246.91 0 1.47.658 1.47 1.624h1.61c0-1.82-1.358-3.066-3.122-3.066-1.638 0-3.038 1.064-3.038 2.688 0 1.96 1.442 2.506 3.234 3.136.672.238 1.554.56 1.554 1.554 0 .882-.714 1.456-1.61 1.456-1.106 0-1.904-.728-1.904-2.002zm14.196-5.152v-1.442h-5.656v9.8h5.656v-1.442h-4.046v-2.702h4.046v-1.442h-4.046v-2.772zm7.77 0v-1.442h-5.656v9.8h5.656v-1.442h-4.046v-2.702h4.046v-1.442h-4.046v-2.772zm2.114-1.442h3.178c3.248 0 5.082 2.422 5.082 4.9s-1.834 4.9-5.082 4.9h-3.178zm3.178 1.442h-1.568v6.916h1.568c2.184 0 3.43-1.708 3.43-3.458s-1.246-3.458-3.43-3.458z" fill="#000"/><path d="m525.392.8h4.112c3.712 0 5.824 2.736 5.824 5.6s-2.096 5.6-5.824 5.6h-4.112zm3.984 2.24h-1.392v6.72h1.392c2.096 0 3.312-1.632 3.312-3.36s-1.216-3.36-3.312-3.36zm13.072 9.248c-3.728 0-5.936-2.816-5.936-5.888s2.208-5.888 5.936-5.888c3.712 0 5.92 2.816 5.92 5.888s-2.208 5.888-5.92 5.888zm0-2.336c2.032 0 3.28-1.712 3.28-3.552s-1.248-3.552-3.28-3.552c-2.048 0-3.28 1.712-3.28 3.552s1.232 3.552 3.28 3.552zm12.032-3.168c1.088 0 1.792-.896 1.792-1.936s-.704-1.936-1.792-1.936h-1.776v3.872zm-4.368 5.216v-11.2h4.704c2.48 0 4.08 1.872 4.08 4.048 0 1.568-.832 2.96-2.224 3.616l2.24 3.536h-3.008l-1.984-3.104h-1.216v3.104zm22.512-11.2h-2.944l-2.96 7.792-2.992-7.792h-2.992v11.2h2.528v-6.944l2.496 6.944h1.92l2.416-6.944v6.944h2.528zm10.72 5.984c1.088 0 1.792-.896 1.792-1.936s-.704-1.936-1.792-1.936h-1.776v3.872zm-4.368 5.216v-11.2h4.704c2.48 0 4.08 1.872 4.08 4.048 0 1.568-.832 2.96-2.224 3.616l2.24 3.536h-3.008l-1.984-3.104h-1.216v3.104zm15.888.288c-3.728 0-5.936-2.816-5.936-5.888s2.208-5.888 5.936-5.888c3.712 0 5.92 2.816 5.92 5.888s-2.208 5.888-5.92 5.888zm0-2.336c2.032 0 3.28-1.712 3.28-3.552s-1.248-3.552-3.28-3.552c-2.048 0-3.28 1.712-3.28 3.552s1.232 3.552 3.28 3.552zm13.04 2.336c-3.728 0-5.936-2.816-5.936-5.888s2.208-5.888 5.936-5.888c3.712 0 5.92 2.816 5.92 5.888s-2.208 5.888-5.92 5.888zm0-2.336c2.032 0 3.28-1.712 3.28-3.552s-1.248-3.552-3.28-3.552c-2.048 0-3.28 1.712-3.28 3.552s1.232 3.552 3.28 3.552zm19.552-9.152h-2.944l-2.96 7.792-2.992-7.792h-2.992v11.2h2.528v-6.944l2.496 6.944h1.92l2.416-6.944v6.944h2.528zm13.184 2.176v-2.176h-6.832v11.2h2.592v-3.872h4.24v-2.128h-4.24v-3.024zm1.952 5.2c0 2.304 1.68 4.112 4.352 4.112 2.688 0 4.368-1.808 4.368-4.112v-7.376h-2.592v7.36c0 1.024-.72 1.888-1.776 1.888s-1.76-.864-1.76-1.888v-7.36h-2.592zm13.552-7.376h-2.704v11.2h2.592v-7.2l4.032 7.2h2.704v-11.2h-2.576v7.296zm8.928 0h4.112c3.712 0 5.824 2.736 5.824 5.6s-2.096 5.6-5.824 5.6h-4.112zm3.984 2.24h-1.392v6.72h1.392c2.096 0 3.312-1.632 3.312-3.36s-1.216-3.36-3.312-3.36z" fill="#fff"/><g stroke-linecap="square" stroke-width="1.5" transform="translate(84 5.799988)"><path d="m7.5.75h418" stroke="#fff"/><path d="m603.5.75h390.001344" stroke="#fff"/><g stroke="#000"><path d="m994.488374.75h33.026766"/><path d="m.5.75h38.0151427"/><path d="m1082.48837.75h40.01163"/></g></g><path d="m0 22h1200" stroke="#dadada" stroke-linecap="square"/></g></g></svg>

<svg width="1200px" height="193px" viewBox="0 0 1200 193" version="1.1" xmlns="http://www.w3.org/2000/svg" xmlns:xlink="http://www.w3.org/1999/xlink">
    <!-- Generator: Sketch 42 (36781) - http://www.bohemiancoding.com/sketch -->
    <title>Ramp</title>
    <desc>Created with Sketch.</desc>
    <defs>
        <path d="M0,161.020995 L123.68479,161.020995 C123.68479,161.020995 315.203088,167.020995 625.269714,136.102478 C935.33634,105.183961 1200,0 1200,0 L1200.88205,191.819735 L0,191.819735 L0,161.020995 Z" id="path-1"></path>
        <linearGradient x1="0%" y1="123.2874%" x2="100%" y2="64.5355181%" id="linearGradient-3">
            <stop stop-color="#00E0C0" offset="0%"></stop>
            <stop stop-color="#0998F0" offset="100%"></stop>
        </linearGradient>
    </defs>
    <g id="Page-1" stroke="none" stroke-width="1" fill="none" fill-rule="evenodd">
        <g id="Desktop-HD-Copy-20" transform="translate(0.000000, -212.000000)">
            <g id="Ramp" transform="translate(0.000000, 212.000000)">
                <g id="Ramp-Shape">
                    <mask id="mask-2" fill="white">
                        <use xlink:href="#path-1"></use>
                    </mask>
                    <use id="Path-2" fill="#505050" xlink:href="#path-1"></use>
                    <polygon id="Rectangle-3" fill="#F4F6F6" mask="url(#mask-2)" points="0 121.177126 133 121.177126 123 200.24957 0 200.24957"></polygon>
                    <polygon id="Rectangle-3-Copy" fill="url(#linearGradient-3)" mask="url(#mask-2)" points="123 -246.912813 1078 -251.367009 1078 192 123 192"></polygon>
                    <polygon id="Rectangle-3" fill="#F4F6F6" mask="url(#mask-2)" points="1077 -407.385677 1201 -408 1201 200.24957 1077 200.24957"></polygon>
                </g>
                <g id="Timeline" transform="translate(0.000000, 170.000000)">
                    <circle id="Oval-2" fill="#000000" cx="84.5" cy="6.5" r="1.5"></circle>
                    <circle id="Oval-2-Copy-3" fill="#000000" cx="1165.5" cy="6.5" r="1.5"></circle>
                    <circle id="Oval-2-Copy-3" fill="#000000" cx="1112.5" cy="6.5" r="1.5"></circle>
                    <circle id="Oval-2-Copy" fill="#FFFFFF" cx="509.5" cy="6.5" r="1.5"></circle>
                    <circle id="Oval-2-Copy-2" fill="#FFFFFF" cx="685.5" cy="6.5" r="1.5"></circle>
                    <path d="M47.168,11 L48.834,11 L48.834,1.2 L47.168,1.2 L47.168,11 Z M51.018,1.2 L54.196,1.2 C57.444,1.2 59.278,3.622 59.278,6.1 C59.278,8.578 57.444,11 54.196,11 L51.018,11 L51.018,1.2 Z M54.196,2.642 L52.628,2.642 L52.628,9.558 L54.196,9.558 C56.38,9.558 57.626,7.85 57.626,6.1 C57.626,4.35 56.38,2.642 54.196,2.642 Z M66.628,2.642 L66.628,1.2 L60.972,1.2 L60.972,11 L66.628,11 L66.628,9.558 L62.582,9.558 L62.582,6.856 L66.628,6.856 L66.628,5.414 L62.582,5.414 L62.582,2.642 L66.628,2.642 Z M75.672,11 L73.978,11 L73.558,9.754 L69.876,9.754 L69.456,11 L67.762,11 L71.15,1.2 L72.284,1.2 L75.672,11 Z M73.068,8.312 L71.724,3.874 L70.366,8.312 L73.068,8.312 Z" id="IDEA" fill="#000000"></path>
                    <path d="M1123.288,7.794 C1123.288,9.992 1124.884,11.238 1126.662,11.238 C1128.482,11.238 1130.022,10.174 1130.022,8.158 C1130.022,6.282 1128.188,5.638 1126.662,5.092 C1125.934,4.826 1125.234,4.448 1125.234,3.65 C1125.234,2.824 1125.906,2.404 1126.704,2.404 C1127.614,2.404 1128.174,3.062 1128.174,4.028 L1129.784,4.028 C1129.784,2.208 1128.426,0.962 1126.662,0.962 C1125.024,0.962 1123.624,2.026 1123.624,3.65 C1123.624,5.61 1125.066,6.156 1126.858,6.786 C1127.53,7.024 1128.412,7.346 1128.412,8.34 C1128.412,9.222 1127.698,9.796 1126.802,9.796 C1125.696,9.796 1124.898,9.068 1124.898,7.794 L1123.288,7.794 Z M1137.484,2.642 L1137.484,1.2 L1131.828,1.2 L1131.828,11 L1137.484,11 L1137.484,9.558 L1133.438,9.558 L1133.438,6.856 L1137.484,6.856 L1137.484,5.414 L1133.438,5.414 L1133.438,2.642 L1137.484,2.642 Z M1145.254,2.642 L1145.254,1.2 L1139.598,1.2 L1139.598,11 L1145.254,11 L1145.254,9.558 L1141.208,9.558 L1141.208,6.856 L1145.254,6.856 L1145.254,5.414 L1141.208,5.414 L1141.208,2.642 L1145.254,2.642 Z M1147.368,1.2 L1150.546,1.2 C1153.794,1.2 1155.628,3.622 1155.628,6.1 C1155.628,8.578 1153.794,11 1150.546,11 L1147.368,11 L1147.368,1.2 Z M1150.546,2.642 L1148.978,2.642 L1148.978,9.558 L1150.546,9.558 C1152.73,9.558 1153.976,7.85 1153.976,6.1 C1153.976,4.35 1152.73,2.642 1150.546,2.642 Z" id="SEED" fill="#000000"></path>
                    <path d="M525.392,0.8 L529.504,0.8 C533.216,0.8 535.328,3.536 535.328,6.4 C535.328,9.264 533.232,12 529.504,12 L525.392,12 L525.392,0.8 Z M529.376,3.04 L527.984,3.04 L527.984,9.76 L529.376,9.76 C531.472,9.76 532.688,8.128 532.688,6.4 C532.688,4.672 531.472,3.04 529.376,3.04 Z M542.448,12.288 C538.72,12.288 536.512,9.472 536.512,6.4 C536.512,3.328 538.72,0.512 542.448,0.512 C546.16,0.512 548.368,3.328 548.368,6.4 C548.368,9.472 546.16,12.288 542.448,12.288 Z M542.448,9.952 C544.48,9.952 545.728,8.24 545.728,6.4 C545.728,4.56 544.48,2.848 542.448,2.848 C540.4,2.848 539.168,4.56 539.168,6.4 C539.168,8.24 540.4,9.952 542.448,9.952 Z M554.48,6.784 C555.568,6.784 556.272,5.888 556.272,4.848 C556.272,3.808 555.568,2.912 554.48,2.912 L552.704,2.912 L552.704,6.784 L554.48,6.784 Z M550.112,12 L550.112,0.8 L554.816,0.8 C557.296,0.8 558.896,2.672 558.896,4.848 C558.896,6.416 558.064,7.808 556.672,8.464 L558.912,12 L555.904,12 L553.92,8.896 L552.704,8.896 L552.704,12 L550.112,12 Z M572.624,0.8 L569.68,0.8 L566.72,8.592 L563.728,0.8 L560.736,0.8 L560.736,12 L563.264,12 L563.264,5.056 L565.76,12 L567.68,12 L570.096,5.056 L570.096,12 L572.624,12 L572.624,0.8 Z M583.344,6.784 C584.432,6.784 585.136,5.888 585.136,4.848 C585.136,3.808 584.432,2.912 583.344,2.912 L581.568,2.912 L581.568,6.784 L583.344,6.784 Z M578.976,12 L578.976,0.8 L583.68,0.8 C586.16,0.8 587.76,2.672 587.76,4.848 C587.76,6.416 586.928,7.808 585.536,8.464 L587.776,12 L584.768,12 L582.784,8.896 L581.568,8.896 L581.568,12 L578.976,12 Z M594.864,12.288 C591.136,12.288 588.928,9.472 588.928,6.4 C588.928,3.328 591.136,0.512 594.864,0.512 C598.576,0.512 600.784,3.328 600.784,6.4 C600.784,9.472 598.576,12.288 594.864,12.288 Z M594.864,9.952 C596.896,9.952 598.144,8.24 598.144,6.4 C598.144,4.56 596.896,2.848 594.864,2.848 C592.816,2.848 591.584,4.56 591.584,6.4 C591.584,8.24 592.816,9.952 594.864,9.952 Z M607.904,12.288 C604.176,12.288 601.968,9.472 601.968,6.4 C601.968,3.328 604.176,0.512 607.904,0.512 C611.616,0.512 613.824,3.328 613.824,6.4 C613.824,9.472 611.616,12.288 607.904,12.288 Z M607.904,9.952 C609.936,9.952 611.184,8.24 611.184,6.4 C611.184,4.56 609.936,2.848 607.904,2.848 C605.856,2.848 604.624,4.56 604.624,6.4 C604.624,8.24 605.856,9.952 607.904,9.952 Z M627.456,0.8 L624.512,0.8 L621.552,8.592 L618.56,0.8 L615.568,0.8 L615.568,12 L618.096,12 L618.096,5.056 L620.592,12 L622.512,12 L624.928,5.056 L624.928,12 L627.456,12 L627.456,0.8 Z M640.64,2.976 L640.64,0.8 L633.808,0.8 L633.808,12 L636.4,12 L636.4,8.128 L640.64,8.128 L640.64,6 L636.4,6 L636.4,2.976 L640.64,2.976 Z M642.592,8.176 C642.592,10.48 644.272,12.288 646.944,12.288 C649.632,12.288 651.312,10.48 651.312,8.176 L651.312,0.8 L648.72,0.8 L648.72,8.16 C648.72,9.184 648,10.048 646.944,10.048 C645.888,10.048 645.184,9.184 645.184,8.16 L645.184,0.8 L642.592,0.8 L642.592,8.176 Z M656.144,0.8 L653.44,0.8 L653.44,12 L656.032,12 L656.032,4.8 L660.064,12 L662.768,12 L662.768,0.8 L660.192,0.8 L660.192,8.096 L656.144,0.8 Z M665.072,0.8 L669.184,0.8 C672.896,0.8 675.008,3.536 675.008,6.4 C675.008,9.264 672.912,12 669.184,12 L665.072,12 L665.072,0.8 Z M669.056,3.04 L667.664,3.04 L667.664,9.76 L669.056,9.76 C671.152,9.76 672.368,8.128 672.368,6.4 C672.368,4.672 671.152,3.04 669.056,3.04 Z" id="DORM-ROOM-FUND" fill="#FFFFFF"></path>
                    <g id="Group-6" transform="translate(84.000000, 5.799988)" stroke-width="1.5" stroke-linecap="square">
                        <path d="M7.5,0.75 L425.5,0.75" id="Line" stroke="#FFFFFF"></path>
                        <path d="M603.5,0.75 L993.501344,0.75" id="Line-Copy" stroke="#FFFFFF"></path>
                        <path d="M994.488374,0.75 L1027.51514,0.75" id="Line-Copy-2" stroke="#000000"></path>
                        <path d="M0.5,0.75 L38.5151427,0.75" id="Line-Copy-4" stroke="#000000"></path>
                        <path d="M1082.48837,0.75 L1122.5,0.75" id="Line-Copy-3" stroke="#000000"></path>
                    </g>
                    <path d="M0,22 L1200,22" id="Line" stroke="#DADADA" stroke-linecap="square"></path>
                </g>
            </g>
        </g>
    </g>
</svg>
